packages/ui-solid/icons/qr_28.svg

<svg width="28" height="28" viewBox="0 0 28 28" fill="none" xmlns="http://www.w3.org/2000/svg">
<path fill-rule="evenodd" clip-rule="evenodd" d="M8.13876 3.06777H8.21978C8.96266 3.06776 9.57948 3.06775 10.0808 3.11259C10.6032 3.15931 11.0875 3.26021 11.5358 3.51568C12.0514 3.80944 12.4811 4.23283 12.7804 4.74445C13.0416 5.19086 13.1447 5.67339 13.1923 6.19191C13.2379 6.68827 13.2379 7.29836 13.2379 8.03027V8.113C13.2379 8.84491 13.2379 9.455 13.1923 9.95136C13.1447 10.4699 13.0416 10.9524 12.7804 11.3988C12.4811 11.9104 12.0514 12.3338 11.5358 12.6276C11.0875 12.8831 10.6032 12.984 10.0808 13.0307C9.57948 13.0755 8.96266 13.0755 8.21979 13.0755H8.13875C7.39587 13.0755 6.77905 13.0755 6.2777 13.0307C5.75532 12.984 5.27108 12.8831 4.8227 12.6276C4.30709 12.3338 3.87745 11.9104 3.57812 11.3988C3.31694 10.9524 3.21383 10.4699 3.16621 9.95136C3.12062 9.45499 3.12063 8.84489 3.12065 8.11297V8.0303C3.12063 7.29837 3.12062 6.68828 3.16621 6.19191C3.21383 5.67339 3.31694 5.19086 3.57812 4.74445C3.87745 4.23283 4.30709 3.80944 4.8227 3.51568C5.27108 3.26021 5.75532 3.15931 6.2777 3.11259C6.77906 3.06775 7.39588 3.06776 8.13876 3.06777ZM6.43805 4.90543C6.03833 4.94118 5.84439 5.00522 5.71377 5.07965C5.47075 5.2181 5.27043 5.41639 5.13176 5.65341C5.05864 5.77838 4.99461 5.9651 4.95866 6.35653C4.92153 6.7608 4.92065 7.28775 4.92065 8.07163C4.92065 8.85552 4.92153 9.38247 4.95866 9.78674C4.99461 10.1782 5.05864 10.3649 5.13176 10.4899C5.27043 10.7269 5.47075 10.9252 5.71377 11.0636C5.84439 11.138 6.03833 11.2021 6.43805 11.2378C6.8497 11.2747 7.38558 11.2755 8.17927 11.2755C8.97296 11.2755 9.50884 11.2747 9.92049 11.2378C10.3202 11.2021 10.5141 11.138 10.6448 11.0636C10.8878 10.9252 11.0881 10.7269 11.2268 10.4899C11.2999 10.3649 11.3639 10.1782 11.3999 9.78674C11.437 9.38247 11.4379 8.85552 11.4379 8.07163C11.4379 7.28775 11.437 6.7608 11.3999 6.35653C11.3639 5.9651 11.2999 5.77838 11.2268 5.65341C11.0881 5.41639 10.8878 5.2181 10.6448 5.07965C10.5141 5.00522 10.3202 4.94118 9.92049 4.90543C9.50884 4.86861 8.97296 4.86777 8.17927 4.86777C7.38558 4.86777 6.8497 4.86861 6.43805 4.90543ZM19.7829 3.06777H19.8639C20.6068 3.06776 21.2236 3.06775 21.725 3.11259C22.2474 3.15931 22.7316 3.26021 23.18 3.51568C23.6956 3.80945 24.1252 4.23283 24.4246 4.74445C24.6857 5.19086 24.7888 5.67339 24.8365 6.19191C24.8821 6.68828 24.882 7.29838 24.882 8.03032V8.11295C24.882 8.84489 24.8821 9.45499 24.8365 9.95136C24.7888 10.4699 24.6857 10.9524 24.4246 11.3988C24.1252 11.9104 23.6956 12.3338 23.18 12.6276C22.7316 12.8831 22.2474 12.984 21.725 13.0307C21.2236 13.0755 20.6068 13.0755 19.8639 13.0755H19.7829C19.04 13.0755 18.4232 13.0755 17.9218 13.0307C17.3995 12.984 16.9152 12.8831 16.4668 12.6276C15.9512 12.3338 15.5216 11.9104 15.2223 11.3988C14.9611 10.9524 14.858 10.4699 14.8103 9.95136C14.7648 9.45499 14.7648 8.84489 14.7648 8.11295V8.03032C14.7648 7.29838 14.7648 6.68828 14.8103 6.19191C14.858 5.67339 14.9611 5.19086 15.2223 4.74445C15.5216 4.23283 15.9512 3.80945 16.4668 3.51568C16.9152 3.26021 17.3995 3.15931 17.9218 3.11259C18.4232 3.06775 19.04 3.06776 19.7829 3.06777ZM18.0822 4.90543C17.6825 4.94118 17.4885 5.00522 17.3579 5.07965C17.1149 5.2181 16.9146 5.41639 16.7759 5.65341C16.7028 5.77838 16.6388 5.9651 16.6028 6.35653C16.5657 6.7608 16.5648 7.28775 16.5648 8.07163C16.5648 8.85552 16.5657 9.38247 16.6028 9.78674C16.6388 10.1782 16.7028 10.3649 16.7759 10.4899C16.9146 10.7269 17.1149 10.9252 17.3579 11.0636C17.4885 11.138 17.6825 11.2021 18.0822 11.2378C18.4938 11.2747 19.0297 11.2755 19.8234 11.2755C20.6171 11.2755 21.153 11.2747 21.5646 11.2378C21.9643 11.2021 22.1583 11.138 22.2889 11.0636C22.5319 10.9252 22.7323 10.7269 22.8709 10.4899C22.944 10.3649 23.0081 10.1782 23.044 9.78674C23.0811 9.38247 23.082 8.85552 23.082 8.07163C23.082 7.28775 23.0811 6.7608 23.044 6.35653C23.0081 5.9651 22.944 5.77838 22.8709 5.65341C22.7323 5.41639 22.5319 5.2181 22.2889 5.07965C22.1583 5.00522 21.9643 4.94118 21.5646 4.90543C21.153 4.86861 20.6171 4.86777 19.8234 4.86777C19.0297 4.86777 18.4938 4.86861 18.0822 4.90543ZM8.13879 14.5586H8.21975C8.96264 14.5586 9.57947 14.5586 10.0808 14.6034C10.6032 14.6501 11.0875 14.751 11.5358 15.0065C12.0514 15.3003 12.4811 15.7236 12.7804 16.2353C13.0416 16.6817 13.1447 17.1642 13.1923 17.6827C13.2379 18.1791 13.2379 18.7892 13.2379 19.5211V19.6038C13.2379 20.3357 13.2379 20.9458 13.1923 21.4422C13.1447 21.9607 13.0416 22.4432 12.7804 22.8896C12.4811 23.4013 12.0514 23.8246 11.5358 24.1184C11.0875 24.3739 10.6032 24.4748 10.0808 24.5215C9.57949 24.5663 8.96269 24.5663 8.21983 24.5663H8.1387C7.39585 24.5663 6.77904 24.5663 6.2777 24.5215C5.75532 24.4748 5.27108 24.3739 4.8227 24.1184C4.30709 23.8246 3.87745 23.4013 3.57812 22.8896C3.31694 22.4432 3.21383 21.9607 3.16621 21.4422C3.12062 20.9458 3.12063 20.3357 3.12065 19.6038V19.5211C3.12063 18.7892 3.12062 18.1791 3.16621 17.6827C3.21383 17.1642 3.31694 16.6817 3.57812 16.2353C3.87745 15.7236 4.30709 15.3003 4.8227 15.0065C5.27108 14.751 5.75532 14.6501 6.2777 14.6034C6.77906 14.5586 7.3959 14.5586 8.13879 14.5586ZM6.43805 16.3962C6.03833 16.432 5.84439 16.496 5.71377 16.5705C5.47075 16.7089 5.27043 16.9072 5.13176 17.1442C5.05864 17.2692 4.99461 17.4559 4.95866 17.8473C4.92153 18.2516 4.92065 18.7786 4.92065 19.5624C4.92065 20.3463 4.92153 20.8733 4.95866 21.2775C4.99461 21.669 5.05864 21.8557 5.13176 21.9807C5.27043 22.2177 5.47075 22.416 5.71377 22.5544C5.84439 22.6289 6.03833 22.6929 6.43805 22.7287C6.8497 22.7655 7.38558 22.7663 8.17927 22.7663C8.97296 22.7663 9.50884 22.7655 9.92049 22.7287C10.3202 22.6929 10.5141 22.6289 10.6448 22.5544C10.8878 22.416 11.0881 22.2177 11.2268 21.9807C11.2999 21.8557 11.3639 21.669 11.3999 21.2775C11.437 20.8733 11.4379 20.3463 11.4379 19.5624C11.4379 18.7786 11.437 18.2516 11.3999 17.8473C11.3639 17.4559 11.2999 17.2692 11.2268 17.1442C11.0881 16.9072 10.8878 16.7089 10.6448 16.5705C10.5141 16.496 10.3202 16.432 9.92049 16.3962C9.50884 16.3594 8.97296 16.3586 8.17927 16.3586C7.38558 16.3586 6.8497 16.3594 6.43805 16.3962Z" fill="#007AFF"/>
<path d="M17.1939 15.7796C17.8553 15.7796 18.3915 16.3087 18.3915 16.9615C18.3915 17.6142 17.8553 18.1434 17.1939 18.1434C16.5324 18.1434 15.9962 17.6142 15.9962 16.9615C15.9962 16.3087 16.5324 15.7796 17.1939 15.7796Z" fill="#007AFF"/>
<path d="M19.9885 18.5374C20.6499 18.5374 21.1861 19.0665 21.1861 19.7193C21.1861 20.3721 20.6499 20.9012 19.9885 20.9012C19.327 20.9012 18.7908 20.3721 18.7908 19.7193C18.7908 19.0665 19.327 18.5374 19.9885 18.5374Z" fill="#007AFF"/>
<path d="M22.7831 15.7796C23.4445 15.7796 23.9807 16.3087 23.9807 16.9615C23.9807 17.6142 23.4445 18.1434 22.7831 18.1434C22.1216 18.1434 21.5854 17.6142 21.5854 16.9615C21.5854 16.3087 22.1216 15.7796 22.7831 15.7796Z" fill="#007AFF"/>
<path d="M17.1939 21.2952C17.8553 21.2952 18.3915 21.8244 18.3915 22.4771C18.3915 23.1299 17.8553 23.659 17.1939 23.659C16.5324 23.659 15.9962 23.1299 15.9962 22.4771C15.9962 21.8244 16.5324 21.2952 17.1939 21.2952Z" fill="#007AFF"/>
<path d="M22.7831 21.2952C23.4445 21.2952 23.9807 21.8244 23.9807 22.4771C23.9807 23.1299 23.4445 23.659 22.7831 23.659C22.1216 23.659 21.5854 23.1299 21.5854 22.4771C21.5854 21.8244 22.1216 21.2952 22.7831 21.2952Z" fill="#007AFF"/>
</svg>

<svg xmlns="http://www.w3.org/2000/svg" width="28" height="28" fill="none"><path fill="currentColor" fill-rule="evenodd" d="M8.139 3.068h.08c.744 0 1.36 0 1.862.045.522.046 1.007.147 1.455.403.515.293.945.717 1.244 1.228.262.447.365.93.412 1.448.046.496.046 1.106.046 1.838v.083c0 .732 0 1.342-.046 1.838-.047.519-.15 1.001-.412 1.448a3.4 3.4 0 0 1-1.244 1.229c-.448.255-.933.356-1.455.403-.502.044-1.118.044-1.861.044h-.081c-.743 0-1.36 0-1.861-.044-.523-.047-1.007-.148-1.455-.403a3.4 3.4 0 0 1-1.245-1.23c-.261-.446-.364-.928-.412-1.447-.045-.496-.045-1.106-.045-1.838V8.03c0-.732 0-1.342.045-1.838.048-.519.15-1.001.412-1.448.3-.511.73-.935 1.245-1.228.448-.256.932-.357 1.455-.403.501-.045 1.118-.045 1.86-.045m-1.7 1.837c-.4.036-.595.1-.725.175a1.6 1.6 0 0 0-.582.573c-.073.125-.137.312-.173.704-.037.404-.038.93-.038 1.715 0 .784 0 1.31.038 1.715.036.391.1.578.173.703.138.237.339.435.582.574.13.074.324.138.724.174.412.037.948.037 1.741.037s1.33 0 1.741-.037c.4-.036.594-.1.725-.174.243-.139.443-.337.582-.574.073-.125.137-.312.173-.703.037-.405.038-.931.038-1.715s-.001-1.311-.038-1.715c-.036-.392-.1-.579-.173-.704a1.6 1.6 0 0 0-.582-.573c-.13-.075-.325-.139-.725-.175-.411-.036-.947-.037-1.74-.037-.794 0-1.33 0-1.742.037m13.344-1.837h.08c.744 0 1.36 0 1.862.045.522.046 1.007.147 1.455.403a3.4 3.4 0 0 1 1.245 1.228c.26.447.364.93.412 1.448.045.496.045 1.106.045 1.838v.083c0 .732 0 1.342-.046 1.838-.047.519-.15 1.001-.411 1.448a3.4 3.4 0 0 1-1.245 1.229c-.448.255-.933.356-1.455.403-.501.044-1.118.044-1.861.044h-.081c-.743 0-1.36 0-1.861-.044-.523-.047-1.007-.148-1.455-.403a3.4 3.4 0 0 1-1.245-1.23c-.26-.446-.364-.928-.412-1.447-.045-.496-.045-1.106-.045-1.838V8.03c0-.732 0-1.342.045-1.838.048-.519.151-1.001.412-1.448.3-.511.73-.935 1.245-1.228.448-.256.933-.357 1.455-.403.501-.045 1.118-.045 1.86-.045m-1.7 1.837c-.4.036-.594.1-.725.175a1.6 1.6 0 0 0-.582.573c-.073.125-.137.312-.173.704-.037.404-.038.93-.038 1.715 0 .784 0 1.31.038 1.715.036.391.1.578.173.703.139.237.339.435.582.574.13.074.325.138.724.174.412.037.948.037 1.741.037s1.33 0 1.742-.037c.4-.036.593-.1.724-.174.243-.139.443-.337.582-.574.073-.125.137-.312.173-.703.037-.405.038-.931.038-1.715s0-1.311-.038-1.715c-.036-.392-.1-.579-.173-.704a1.6 1.6 0 0 0-.582-.573c-.13-.075-.325-.139-.724-.175-.412-.036-.948-.037-1.742-.037-.793 0-1.33 0-1.74.037M8.138 14.56h.08c.744 0 1.36 0 1.862.044.522.047 1.007.148 1.455.404.515.293.945.717 1.244 1.228.262.447.365.93.412 1.448.046.496.046 1.106.046 1.838v.083c0 .732 0 1.342-.046 1.838-.047.519-.15 1.001-.412 1.448a3.4 3.4 0 0 1-1.244 1.228c-.448.256-.933.357-1.455.404-.502.044-1.118.044-1.861.044h-.081c-.743 0-1.36 0-1.861-.044-.523-.047-1.007-.148-1.455-.404a3.4 3.4 0 0 1-1.245-1.228c-.261-.447-.364-.93-.412-1.448-.045-.496-.045-1.106-.045-1.838v-.083c0-.732 0-1.342.045-1.838.048-.519.15-1.001.412-1.448.3-.511.73-.935 1.245-1.228.448-.256.932-.357 1.455-.404.501-.044 1.118-.044 1.86-.044m-1.7 1.837c-.4.036-.595.1-.725.174a1.6 1.6 0 0 0-.582.574c-.073.125-.137.312-.173.703-.037.405-.038.932-.038 1.715 0 .784 0 1.311.038 1.715.036.392.1.579.173.704.138.237.339.435.582.573.13.075.324.139.724.175.412.037.948.037 1.741.037s1.33 0 1.741-.037c.4-.036.594-.1.725-.175.243-.138.443-.336.582-.573.073-.125.137-.312.173-.704.037-.404.038-.93.038-1.715 0-.783-.001-1.31-.038-1.715-.036-.391-.1-.578-.173-.703a1.6 1.6 0 0 0-.582-.573c-.13-.075-.325-.139-.725-.175-.411-.037-.947-.037-1.74-.037-.794 0-1.33 0-1.742.037" clip-rule="evenodd"/><path fill="currentColor" d="M17.194 15.78a1.19 1.19 0 0 1 1.198 1.182 1.19 1.19 0 0 1-1.198 1.181 1.19 1.19 0 0 1-1.198-1.181 1.19 1.19 0 0 1 1.198-1.182m2.795 2.757c.66 0 1.197.53 1.197 1.182a1.19 1.19 0 0 1-1.198 1.182 1.19 1.19 0 0 1-1.197-1.182 1.19 1.19 0 0 1 1.197-1.182m2.795-2.757a1.19 1.19 0 0 1 1.198 1.182 1.19 1.19 0 0 1-1.198 1.181 1.19 1.19 0 0 1-1.198-1.181 1.19 1.19 0 0 1 1.198-1.182m-5.589 5.515c.661 0 1.198.53 1.198 1.182a1.19 1.19 0 0 1-1.198 1.182 1.19 1.19 0 0 1-1.198-1.182 1.19 1.19 0 0 1 1.198-1.182m5.589 0c.662 0 1.198.53 1.198 1.182a1.19 1.19 0 0 1-1.198 1.182 1.19 1.19 0 0 1-1.198-1.182 1.19 1.19 0 0 1 1.198-1.182"/></svg>
